X: 16
T: Donne vidue / Tarrach barach / Jeus diray
N: Derived from Ano3020-Donne_vidue__Tarrach_barach__Jeus_diray--Pixerecourt_Chansonnier.krn
C: Anonymous
%%abc-version 2.0
%%abcx-abcm2ps-target-version 5.9.1 (29 Sep 2008)
%%abc-creator hum2abc beta
%%abcx-conversion-date 2019/02/16 20:18:27
%%abc-edited-by Jesse Rodin
%%abc-edited-by Chris Gage 02-25-2015
%%abcx-initial-encoding-date 2015/03/14/
%%humdrum-veritas 1565662404
%%humdrum-veritas-data 1905974849
%%linebreak <none>
%%barnumbers 0
L: 1/4
M: 2/1
Q: 1/2=120
%%staves [1 2 3 4]
V: 1 clef=treble
V: 2 clef=treble-8
V: 3 clef=treble-8
V: 4 clef=bass
K: F
[V:1] G8 | 
[V:2] d4d2d2 | 
[V:3] G4G4 | 
[V:4] G,,8- | 
[V:1] d6c2 | 
[V:2] d4d4 | 
[V:3] B4B4 | 
[V:4] G,,8- | 
[V:1] B6AG | 
[V:2] d4d4- | 
[V:3] B4B4 | 
[V:4] G,,8 | 
[V:1] F4A4 | 
[V:2] d4A4 | 
[V:3] A4A4 | 
[V:4] D,8 | 
[V:1] B4B4 | 
[V:2] B6AG | 
[V:3] d4d4 | 
[V:4] B,,4G,,4 | 
[V:1] A6GF | 
[V:2] F6E2 | 
[V:3] c4A4 | 
[V:4] A,,8 | 
[V:1] G8 | 
[V:2] G4d2d2 | 
[V:3] B4B4 | 
[V:4] G,,8 | 
[V:1] A8 | 
[V:2] d2d2d2d2 | 
[V:3] A8 | 
[V:4] D,6C,2 | 
[V:1] z4d4- | 
[V:2] d8 | 
[V:3] B4B4 | 
[V:4] B,,6A,,2 | 
[V:1] d2c2A4- | 
[V:2] z8 | 
[V:3] d4d4 | 
[V:4] G,,4D,3E, | 
[V:1] A4B4 | 
[V:2] z8 | 
[V:3] c4d4 | 
[V:4] F,2A,2G,4 | 
[V:1] A2G2F4 | 
[V:2] z8 | 
[V:3] d4d4 | 
[V:4] F,2G,2D,4 | 
[V:1] B4A4 | 
[V:2] G4A3B | 
[V:3] d4d4 | 
[V:4] G,,4D,4 | 
[V:1] G2FED2G2- | 
[V:2] c2G4d2- | 
[V:3] G4B4 | 
[V:4] E,4G,4 | 
[V:1] G2A2^F2E2 | 
[V:2] d2d2d4 | 
[V:3] A4A4 | 
[V:4] D,8 | 
[V:1] G8 | 
[V:2] B6A2 | 
[V:3] G8 | 
[V:4] G,,8- | 
[V:1] z4G4 | 
[V:2] G8 | 
[V:3] z8 | 
[V:4] G,,8 | 
[V:1] B6c2 | 
[V:2] z4g4 | 
[V:3] z8 | 
[V:4] G,6A,2 | 
[V:1] d4_e4- | 
[V:2] f4g4- | 
[V:3] z8 | 
[V:4] B,4_E,4- | 
[V:1] e2d2d4- | 
[V:2] g2f2d4 | 
[V:3] z8 | 
[V:4] E,4B,4 | 
[V:1] d4^c4 | 
[V:2] e8 | 
[V:3] A4A4 | 
[V:4] A,8 | 
[V:1] d6c2 | 
[V:2] d8 | 
[V:3] G4G4 | 
[V:4] B,6A,G, | 
[V:1] A4B2c2- | 
[V:2] f4d2e2 | 
[V:3] z8 | 
[V:4] F,4B,2A,2 | 
[V:1] c2d4c2 | 
[V:2] f4e4 | 
[V:3] z8 | 
[V:4] F,2D,2A,4 | 
[V:1] B2AGF4 | 
[V:2] d8 | 
[V:3] G4A4 | 
[V:4] z4D,4 | 
[V:1] B4A4- | 
[V:2] z4d4- | 
[V:3] G4A2A2 | 
[V:4] G,,4D,4- | 
[V:1] A2G2F4 | 
[V:2] d8- | 
[V:3] A2A2A2A2 | 
[V:4] D,4D,4 | 
[V:1] E8 | 
[V:2] d4^c4 | 
[V:3] A4A2A2 | 
[V:4] A,,8 | 
[V:1] D4F4 | 
[V:2] d8 | 
[V:3] A2A2A2A2 | 
[V:4] D,4D,4 | 
[V:1] G4B4- | 
[V:2] G2G2G2G2 | 
[V:3] G4d2d2 | 
[V:4] _E,3D,B,,4 | 
[V:1] B2G4F2 | 
[V:2] G4B4 | 
[V:3] d2d2d2d2 | 
[V:4] G,,8 | 
[V:1] A4B4- | 
[V:2] A4G4 | 
[V:3] d4B4 | 
[V:4] D,4G,4- | 
[V:1] B2A2A4 | 
[V:2] G4d4- | 
[V:3] G4A4 | 
[V:4] G,2F,E,D,4- | 
[V:1] d6c2 | 
[V:2] d2e2f4 | 
[V:3] A4A4 | 
[V:4] D,2C,2D,4 | 
[V:1] B4A4 | 
[V:2] d8 | 
[V:3] G4F4 | 
[V:4] G,4D,4 | 
[V:1] G6FE | 
[V:2] B4c4 | 
[V:3] G8 | 
[V:4] _E,8 | 
[V:1] F8- | 
[V:2] d4c2B2 | 
[V:3] A8 | 
[V:4] D,8- | 
[V:1] !fermata!F8 | 
[V:2] !fermata!A8 | 
[V:3] !fermata!d8 | 
[V:4] !fermata!D,8 | 
[V:1] B8 | 
[V:2] G6FE | 
[V:3] d4d4 | 
[V:4] G,,8 | 
[V:1] A6GF | 
[V:2] F4F4 | 
[V:3] c4A4 | 
[V:4] A,,8 | 
[V:1] G8 | 
[V:2] G4B4 | 
[V:3] B4G4 | 
[V:4] G,,8 | 
[V:1] A4F4 | 
[V:2] A4d4 | 
[V:3] F8 | 
[V:4] D,8 | 
[V:1] E8 | 
[V:2] c6B2 | 
[V:3] z4C4 | 
[V:4] A,,4C,4 | 
[V:1] D6CB, | 
[V:2] G8 | 
[V:3] D4D4 | 
[V:4] B,,8 | 
[V:1] C8 | 
[V:2] A8- | 
[V:3] E4E4 | 
[V:4] A,,8 | 
[V:1] z4F4 | 
[V:2] A4B4 | 
[V:3] F4F4 | 
[V:4] D,8 | 
[V:1] E6D2 | 
[V:2] c8 | 
[V:3] G8 | 
[V:4] C,8- | 
[V:1] E2F2G4 | 
[V:2] z4e4 | 
[V:3] c8 | 
[V:4] C,8 | 
[V:1] A8 | 
[V:2] f8 | 
[V:3] c4c4 | 
[V:4] F,4A,4 | 
[V:1] B4A4- | 
[V:2] g4f4- | 
[V:3] d4d4 | 
[V:4] G,4D,4 | 
[V:1] A2G2G4- | 
[V:2] f4d4 | 
[V:3] c4G4 | 
[V:4] F,4G,4 | 
[V:1] G4^F4 | 
[V:2] d8 | 
[V:3] A4A4 | 
[V:4] D,8 | 
[V:1] [M:3/1]G8z4 | 
[V:2] [M:3/1]B4G8 | 
[V:3] [M:3/1]G4B6A2 | 
[V:4] [M:3/1]G,,12 | 
[V:1] A4A6G2 | 
[V:2] A8d4- | 
[V:3] F12 | 
[V:4] D,12- | 
[V:1] F4A8 | 
[V:2] d12 | 
[V:3] A2A2A4A4 | 
[V:4] D,12 | 
[V:1] G4F6E2 | 
[V:2] B4A8 | 
[V:3] d8c4 | 
[V:4] G,,4D,4F,4 | 
[V:1] G8^F4 | 
[V:2] d4d8 | 
[V:3] B4A8 | 
[V:4] G,4D,8 | 
[V:1] G6A2B2c2 | 
[V:2] B8G4 | 
[V:3] G8z4 | 
[V:4] _E,6F,2G,4 | 
[V:1] A8F4 | 
[V:2] A8A4 | 
[V:3] d8d4 | 
[V:4] D,12 | 
[V:1] G4E6C2 | 
[V:2] G8G4 | 
[V:3] c8c4 | 
[V:4] E,12 | 
[V:1] F8A4- | 
[V:2] A12 | 
[V:3] d8d4 | 
[V:4] D,8F,4- | 
[V:1] A4G4F4 | 
[V:2] c8A4 | 
[V:3] f4e4d4 | 
[V:4] F,4C,4D,4 | 
[V:1] E8A4- | 
[V:2] A12 | 
[V:3] c8A4 | 
[V:4] A,,12- | 
[V:1] A4G8 | 
[V:2] F4G8 | 
[V:3] c8c4 | 
[V:4] A,,4E,8 | 
[V:1] F4D4F4 | 
[V:2] A12 | 
[V:3] d8z4 | 
[V:4] D,12 | 
[V:1] E4A6G2 | 
[V:2] A12 | 
[V:3] c8c4 | 
[V:4] A,,12 | 
[V:1] A8B4 | 
[V:2] z12 | 
[V:3] A4d8 | 
[V:4] D,8G,4 | 
[V:1] d8c4 | 
[V:2] A4c8 | 
[V:3] f4e8 | 
[V:4] D,4A,8 | 
[V:1] d6c2B2A2 | 
[V:2] f4g6f2 | 
[V:3] d4G8 | 
[V:4] D,4G,4B,4- | 
[V:1] G4d6c2 | 
[V:2] d4g8 | 
[V:3] B6A2G4 | 
[V:4] B,2A,2G,8 | 
[V:1] B4A6G2 | 
[V:2] g4f8 | 
[V:3] d8c4 | 
[V:4] G,4D,4F,4 | 
[V:1] G8^F4 | 
[V:2] d4d8 | 
[V:3] B4A8 | 
[V:4] G,4D,8 | 
[V:1] G8z4 | 
[V:2] B4B8 | 
[V:3] G12 | 
[V:4] G,,4G,,8 | 
[V:1] G4G8 | 
[V:2] G4B6A2 | 
[V:3] d4d8 | 
[V:4] G,,4G,,8 | 
[V:1] A12 | 
[V:2] F12 | 
[V:3] d12 | 
[V:4] D,12 | 
[V:1] A2A2A4A4 | 
[V:2] A2A2A4A4 | 
[V:3] d2d2d4d4 | 
[V:4] D,2D,2D,4D,4 | 
[V:1] B8A4 | 
[V:2] d8c4 | 
[V:3] B6G2A4 | 
[V:4] G,,8F,4 | 
[V:1] G4^F6E2 | 
[V:2] B4A8 | 
[V:3] d12 | 
[V:4] G,4D,8 | 
[V:1] G12 |]  
[V:2] G12 |]  
[V:3] d12 |]  
[V:4] G,,12 |]  



